assets/icons/qvision/chrome_reader_mode.svg

<svg xmlns="http://www.w3.org/2000/svg" height="24" viewBox="0 0 24 24" width="24"><path d="M-74 29h48v48h-48V29zM0 0h24v24H0V0zm0 0h24v24H0V0z" fill="none"/><path d="M13 12h7v1.5h-7zm0-2.5h7V11h-7zm0 5h7V16h-7zM21 4H3c-1.1 0-2 .9-2 2v13c0 1.1.9 2 2 2h18c1.1 0 2-.9 2-2V6c0-1.1-.9-2-2-2zm0 15h-9V6h9v13z"/></svg>

<svg width="24" height="24" viewBox="0 0 24 24" fill="none" xmlns="http://www.w3.org/2000/svg">
<g clip-path="url(#clip0_147_4011)">
<path d="M13 12H20V13.5H13V12ZM13 9.5H20V11H13V9.5ZM13 14.5H20V16H13V14.5ZM21 4H3C1.9 4 1 4.9 1 6V19C1 20.1 1.9 21 3 21H21C22.1 21 23 20.1 23 19V6C23 4.9 22.1 4 21 4ZM21 19H12V6H21V19Z" fill="#323232"/>
</g>
<defs>
<clipPath id="clip0_147_4011">
<rect width="24" height="24" fill="white"/>
</clipPath>
</defs>
</svg>
